icon/pk/diamond-two.svg

<svg viewBox="0 0 48 48" fill="none" xmlns="http://www.w3.org/2000/svg" height="1em" width="1em">
  <path d="M8.92349 22.7879L22.4091 5.08801C23.2096 4.03746 24.7904 4.03746 25.5909 5.08801L39.0765 22.7879C39.622 23.5039 39.622 24.4961 39.0765 25.2121L25.5909 42.912C24.7904 43.9625 23.2096 43.9625 22.4091 42.912L8.92349 25.2121C8.37798 24.4961 8.37798 23.5039 8.92349 22.7879Z" fill="#2F88FF" stroke="black" stroke-width="4"/>
</svg>

<svg width="48" height="48" fill="none" xmlns="http://www.w3.org/2000/svg"><path d="m8.923 22.788 13.486-17.7a2 2 0 0 1 3.182 0l13.486 17.7a2 2 0 0 1 0 2.424l-13.486 17.7a2 2 0 0 1-3.182 0l-13.486-17.7a2 2 0 0 1 0-2.424Z" fill="#2F88FF" stroke="#000" stroke-width="4"/></svg>
